X: 182175
T: Roscommon Plumber (reel)
T: (Martin O'Grady's)
N: 232
C: BB 9/06
L: 1/8
M: 4/4
R: reel
Q: 1/4 = 190
K: D
dB | "D"AFEF D2FA | "Em"BEEF G2 FG | "D"Adcd "A"eAce | "Bm"fdBd "A" ABGE |
"D"AFEF DFAd | "Em"Beef g2fg | "D"a2 fd "Em"edBG | "D"FA"A"GE "D"D2 :|
z2 | "A"e2 ce Acef | "G"g2 dg BcdB | "A"eAce "D"dffa | "Em7"edBd "A"eA A2 |
"A"e2 ce Acef | "G"g2 fg egbg | "D"af~f2 "G"gdBd| "A"cdec "D"d2 :|
